Sources/FrostedUI/Resources/Icons.xcassets/videoFilled32.imageset/video-filled-32.svg

<svg width="32" height="32" viewBox="0 0 32 32" fill="none" xmlns="http://www.w3.org/2000/svg" data-fui-icon="true">
  <path
    d="M31 23.25C31 25.8734 28.8734 28 26.25 28H5.75C3.12665 28 1 25.8734 1 23.25V13H31V23.25ZM13.3975 15.9229C13.0642 15.7328 12.6506 15.9729 12.6504 16.3564V24.1475C12.6504 24.5301 13.0623 24.7708 13.3955 24.583L20.2568 20.707C20.5945 20.516 20.5948 20.0292 20.2578 19.8369L13.3975 15.9229ZM2.25195 11.5H1V8.75C1 6.12665 3.12665 4 5.75 4H9.75098L2.25195 11.5ZM26.25 4C26.6533 4 27.045 4.04991 27.4189 4.14453L20.0645 11.5H13.373L20.873 4H26.25ZM28.8857 4.79883C30.1602 5.6507 31 7.10197 31 8.75V11.5H22.1855L28.8857 4.79883ZM11.252 11.5H4.37305L11.873 4H18.751L11.252 11.5Z"
    fill="currentColor"
  />
</svg>

<svg xmlns="http://www.w3.org/2000/svg" width="32" height="32" fill="none" data-fui-icon="true" viewBox="0 0 32 32"><path fill="currentColor" d="M31 23.25A4.75 4.75 0 0 1 26.25 28H5.75A4.75 4.75 0 0 1 1 23.25V13h30zm-17.602-7.327a.5.5 0 0 0-.748.433v7.791a.5.5 0 0 0 .745.436l6.862-3.876a.5.5 0 0 0 0-.87zM2.252 11.5H1V8.75A4.75 4.75 0 0 1 5.75 4h4.001zM26.25 4q.606.001 1.169.145L20.064 11.5h-6.691l7.5-7.5zm2.636.799A4.75 4.75 0 0 1 31 8.75v2.75h-8.814zM11.252 11.5H4.373l7.5-7.5h6.878z"/></svg>
